src/topics/icons/appium.svg

<svg height="257" preserveAspectRatio="xMidYMid" viewBox="0 0 256 257" width="256" xmlns="http://www.w3.org/2000/svg"><path d="m201.685002 25.373279c-30.782846-26.57400003-98.894507-39.737-149.9372524-1.586-47.8847614 32.099-50.2527496 90.771-50.2527496 90.771 8.15595936 32.099 40.5177981 62.883 102.873487 47.886-7.3669629-43.15 7.071965-152.331 97.316515-137.071z" fill="#00acd2"/><path d="m169.62 129.732998c-33.685 27.955-136.218 70.612-168.125-15.173-7.622 39.946 13.529 106.431 72.089 131.56 51.742 25.42 105.664-4.02 105.664-4.02 23.72-23.113 34.538-65.864-9.628-112.367" fill="#c8e9eb"/><path d="m108.779 90.5238771c41.052 15.1949999 128.807 81.0509999 70.469 151.5759999 38.405-13.373 83.44-64.539 75.922-127.818-3.856-57.5199999-53.484-88.9069999-53.484-88.9069999-31.876-8.986-74.717 3.649-92.907 65.149" fill="#662d91"/></svg>

<?xml version="1.0" encoding="UTF-8" standalone="no"?>
<svg width="256px" height="257px" viewBox="0 0 256 257" version="1.1" xmlns="http://www.w3.org/2000/svg" xmlns:xlink="http://www.w3.org/1999/xlink" preserveAspectRatio="xMidYMid">
	<g>
		<path d="M201.685002,25.373279 C170.902156,-1.20072103 102.790495,-14.363721 51.7477496,23.787279 C3.8629882,55.886279 1.495,114.558279 1.495,114.558279 C9.65095936,146.657279 42.0127981,177.441279 104.368487,162.444279 C97.0015241,119.294279 111.440452,10.113279 201.685002,25.373279 Z" fill="#00ACD2"></path>
		<path d="M169.62,129.732998 C135.935,157.687998 33.402,200.344998 1.495,114.559998 C-6.127,154.505998 15.024,220.990998 73.584,246.119998 C125.326,271.539998 179.248,242.099998 179.248,242.099998 C202.968,218.986998 213.786,176.235998 169.62,129.732998" fill="#C8E9EB"></path>
		<path d="M108.779,90.5238771 C149.831,105.718877 237.586,171.574877 179.248,242.099877 C217.653,228.726877 262.688,177.560877 255.17,114.281877 C251.314,56.7618771 201.686,25.3748771 201.686,25.3748771 C169.81,16.3888771 126.969,29.0238771 108.779,90.5238771" fill="#662D91"></path>
	</g>
</svg>
